packages/foundations/assets/icons/functional/images/maps/location_arrow_north_28_filled.svg

<svg width="28" height="28" viewBox="0 0 28 28" fill="none" xmlns="http://www.w3.org/2000/svg">
<g clip-path="url(#clip0_2213_4841)">
<path fill-rule="evenodd" clip-rule="evenodd" d="M14 7.5212C14.2531 7.52425 14.651 7.65955 14.8235 8.11794L20.9326 24.3485C21.1364 24.8899 20.8627 25.494 20.3213 25.6978C19.9364 25.8426 19.5024 25.7489 19.2116 25.4581L14.1236 20.3701C14.0554 20.3019 13.9449 20.3019 13.8767 20.3701L8.78811 25.4586C8.37906 25.8677 7.71587 25.8677 7.30682 25.4586C7.01607 25.1679 6.92233 24.7339 7.06715 24.3491L13.1831 8.09731C13.342 7.67495 13.7469 7.51845 14 7.5212ZM14 2.23457C14.4487 2.23457 14.8736 2.57585 14.875 3.10957V5.41777C14.875 5.90101 14.4832 6.29277 14 6.29277C13.5513 6.29277 13.1263 5.91672 13.125 5.41777V3.10957C13.125 2.62632 13.5168 2.23457 14 2.23457Z" fill="#1A1C1F"/>
</g>
<defs>
<clipPath id="clip0_2213_4841">
<rect width="28" height="28" fill="white"/>
</clipPath>
</defs>
</svg>

<svg xmlns="http://www.w3.org/2000/svg" width="28" height="28" fill="none"><g clip-path="url(#a)"><path fill="#1A1C1F" fill-rule="evenodd" d="M14 7.521a.89.89 0 0 1 .823.597l6.11 16.23a1.047 1.047 0 0 1-1.721 1.11l-5.088-5.088a.175.175 0 0 0-.247 0L8.788 25.46a1.047 1.047 0 0 1-1.72-1.11l6.115-16.252A.89.89 0 0 1 14 7.521m0-5.286c.449 0 .874.34.875.875v2.308a.875.875 0 0 1-.875.875.89.89 0 0 1-.875-.875V3.11c0-.484.392-.875.875-.875" clip-rule="evenodd"/></g><defs><clipPath id="a"><path fill="#fff" d="M0 0h28v28H0z"/></clipPath></defs></svg>
